X:326
T:Honorable George Carnegie, The
R:Strathspey
B:The Athole Collection
M:C
L:1/8
K:G Minor
B|G>AB>G DG G2|A>GF>c A<F F2|G>AB>G D>GB>d|
c>AF>A BGG:|
d|g>fd>g f<d g2|f>dc>f A<Fc<A|g>fd>g f<d g2|f>df>A B<G G2|
g>fd>g f<d g2|f>dc>f A<Fc<A|G<BA<c B<dc<g|f<df<A G2G||

